storage/app/public/cameras/cinestill-800t.cube
# Adobe 3D LUT Specification - CineStill 800T
TITLE "CineStill 800T Tungsten Halation"
LUT_3D_SIZE 2

0.050000 0.000000 0.020000
1.000000 0.080000 0.040000
0.030000 0.920000 0.100000
1.000000 0.950000 0.250000
0.050000 0.050000 0.950000
1.000000 0.100000 0.980000
0.100000 0.950000 0.980000
1.000000 1.000000 1.000000
