storage/app/public/cameras/cine-noir-500.cube
# Adobe 3D LUT Specification - Cine Noir 500
TITLE "Cine Noir 500 Tungsten Black"
LUT_3D_SIZE 2

0.000000 0.000000 0.020000
0.800000 0.150000 0.100000
0.100000 0.600000 0.200000
0.820000 0.700000 0.250000
0.020000 0.100000 0.750000
0.800000 0.200000 0.780000
0.150000 0.650000 0.800000
0.900000 0.900000 0.950000
