storage/app/public/cameras/cyber-neon.cube
# Adobe 3D LUT Specification - Cyber Neon 80s
TITLE "Cyber Neon Synthwave"
LUT_3D_SIZE 2

0.080000 0.000000 0.120000
1.000000 0.100000 0.400000
0.000000 0.980000 0.800000
1.000000 0.850000 0.950000
0.150000 0.000000 0.990000
1.000000 0.150000 0.990000
0.000000 0.950000 1.000000
1.000000 0.950000 1.000000
