storage/app/public/cameras/dark-moody-35.cube
# Adobe 3D LUT Specification - Dark Moody 35
TITLE "Dark Moody 35 Film Grade"
LUT_3D_SIZE 2

0.000000 0.020000 0.040000
0.750000 0.120000 0.080000
0.040000 0.650000 0.180000
0.780000 0.720000 0.200000
0.020000 0.050000 0.680000
0.720000 0.150000 0.700000
0.080000 0.700000 0.720000
0.880000 0.900000 0.920000
