storage/app/public/cameras/fuji-velvia-50.cube
# Adobe 3D LUT Specification - Fuji Velvia 50
TITLE "Fujichrome Velvia 50 Vivid Landscape"
LUT_3D_SIZE 2

0.000000 0.000000 0.020000
1.000000 0.020000 0.000000
0.000000 1.000000 0.040000
1.000000 1.000000 0.080000
0.010000 0.000000 0.980000
1.000000 0.040000 0.980000
0.020000 1.000000 0.980000
1.000000 1.000000 1.000000
