storage/app/public/cameras/kodak-gold-200.cube
# Adobe 3D LUT Specification - Kodak Gold 200
TITLE "Kodak Gold 200 Warm Vintage"
LUT_3D_SIZE 2

0.030000 0.015000 0.005000
0.990000 0.080000 0.020000
0.030000 0.980000 0.040000
0.990000 0.990000 0.200000
0.015000 0.030000 0.880000
0.990000 0.120000 0.900000
0.100000 0.990000 0.920000
1.000000 1.000000 0.950000
