storage/app/public/cameras/midnight-tokyo.cube
# Adobe 3D LUT Specification - Midnight Tokyo
TITLE "Midnight Tokyo Cyber Noir"
LUT_3D_SIZE 2

0.000000 0.040000 0.120000
0.950000 0.180000 0.250000
0.020000 0.700000 0.650000
0.920000 0.820000 0.680000
0.050000 0.150000 0.850000
0.900000 0.250000 0.900000
0.100000 0.800000 0.920000
0.960000 0.950000 0.980000
