storage/app/public/cameras/noir-800.cube
# Adobe 3D LUT Specification - NOIR 800
TITLE "Noir 800 High Contrast Monochrome"
LUT_3D_SIZE 2

0.000000 0.000000 0.000000
0.150000 0.150000 0.150000
0.400000 0.400000 0.400000
0.550000 0.550000 0.550000
0.080000 0.080000 0.080000
0.650000 0.650000 0.650000
0.820000 0.820000 0.820000
0.980000 0.980000 0.980000
