storage/app/public/cameras/polaroid-sx70.cube
# Adobe 3D LUT Specification - Polaroid SX-70
TITLE "Polaroid SX-70 Vintage Instant"
LUT_3D_SIZE 2

0.040000 0.030000 0.060000
0.980000 0.120000 0.050000
0.030000 0.960000 0.080000
0.980000 0.960000 0.220000
0.050000 0.060000 0.940000
0.980000 0.150000 0.920000
0.100000 0.980000 0.950000
0.990000 0.990000 0.960000
