storage/app/public/cameras/portra-400.cube
# Adobe 3D LUT Specification - Portra 400
TITLE "Kodak Portra 400 Vintage Tone"
LUT_3D_SIZE 2

0.020000 0.010000 0.010000
0.980000 0.050000 0.020000
0.020000 0.960000 0.030000
0.980000 0.980000 0.150000
0.010000 0.020000 0.920000
0.980000 0.080000 0.940000
0.080000 0.980000 0.940000
1.000000 1.000000 0.980000
