storage/app/public/cameras/rolleiflex-tlr.cube
# Adobe 3D LUT Specification - Rolleiflex TLR
TITLE "Rolleiflex TLR Medium Format"
LUT_3D_SIZE 2

0.010000 0.010000 0.010000
0.950000 0.050000 0.020000
0.020000 0.940000 0.020000
0.960000 0.950000 0.120000
0.010000 0.010000 0.900000
0.950000 0.060000 0.900000
0.060000 0.950000 0.900000
0.980000 0.980000 0.950000
