storage/app/public/cameras/safari-camp.cube
# Adobe 3D LUT Specification - Safari Camp 35
TITLE "Safari Camp 35 Earthy Olive"
LUT_3D_SIZE 2

0.020000 0.025000 0.010000
0.960000 0.060000 0.020000
0.020000 0.940000 0.040000
0.960000 0.960000 0.140000
0.010000 0.030000 0.860000
0.940000 0.080000 0.880000
0.080000 0.940000 0.900000
0.980000 0.980000 0.940000
