storage/app/public/cameras/sakura-mini.cube
# Adobe 3D LUT Specification - Sakura Mini Instant
TITLE "Sakura Mini Pastel Dream"
LUT_3D_SIZE 2

0.050000 0.020000 0.040000
0.990000 0.150000 0.250000
0.040000 0.980000 0.100000
0.990000 0.950000 0.350000
0.080000 0.050000 0.980000
0.990000 0.200000 0.950000
0.150000 0.990000 0.980000
1.000000 0.980000 1.000000
