storage/app/public/cameras/shadow-chrome.cube
# Adobe 3D LUT Specification - Shadow Chrome
TITLE "Shadow Chrome Matte Analog"
LUT_3D_SIZE 2

0.040000 0.040000 0.040000
0.680000 0.400000 0.350000
0.350000 0.650000 0.400000
0.720000 0.700000 0.550000
0.300000 0.380000 0.680000
0.680000 0.450000 0.700000
0.400000 0.680000 0.720000
0.880000 0.880000 0.880000
