storage/app/public/cameras/summer-35.cube
# Adobe 3D LUT Specification - Summer 35
TITLE "Summer 35 Vintage Color Grade"
LUT_3D_SIZE 2

0.000000 0.000000 0.000000
1.000000 0.050000 0.020000
0.050000 0.950000 0.050000
1.000000 1.000000 0.100000
0.020000 0.020000 0.900000
1.000000 0.100000 0.950000
0.100000 1.000000 0.950000
1.000000 1.000000 1.000000
