storage/app/public/cameras/superia-400.cube
# Adobe 3D LUT Specification - Superia 400
TITLE "Fuji Superia 400 Cool Tone"
LUT_3D_SIZE 2

0.000000 0.020000 0.030000
0.950000 0.020000 0.050000
0.020000 0.980000 0.080000
0.960000 0.990000 0.200000
0.030000 0.030000 0.980000
0.950000 0.050000 0.980000
0.050000 0.980000 0.980000
1.000000 1.000000 1.000000
