storage/app/public/cameras/vhs-1986.cube
# Adobe 3D LUT Specification - VHS 1986
TITLE "VHS 1986 Analog Tape"
LUT_3D_SIZE 2

0.060000 0.040000 0.080000
0.980000 0.100000 0.060000
0.040000 0.960000 0.080000
0.980000 0.960000 0.200000
0.080000 0.060000 0.940000
0.980000 0.160000 0.920000
0.120000 0.980000 0.940000
0.980000 0.980000 0.960000
